svg/white/dcr.svg

<svg xmlns="http://www.w3.org/2000/svg" width="32" height="32" viewBox="0 0 32 32">
  <path fill="#FFF" fill-rule="evenodd" d="M16,32 C7.163444,32 0,24.836556 0,16 C0,7.163444 7.163444,0 16,0 C24.836556,0 32,7.163444 32,16 C32,24.836556 24.836556,32 16,32 Z M14.8560388,17.6191919 L20.8790075,22.8769697 L24.869945,22.8769697 L21.3852575,19.8351515 C23.8622625,18.8203474 25.2783709,16.1842516 24.7644999,13.5446682 C24.2506288,10.9050849 21.9505636,9.00059197 19.2758825,9 L14.8560388,9 L17.8696325,11.6288889 L19.2758825,11.6288889 C20.9208281,11.6288889 22.25432,12.9698639 22.25432,14.6240404 C22.25432,16.2782169 20.9208281,17.6191919 19.2758825,17.6191919 L14.8560388,17.6191919 Z M17.0132263,14.2591919 L10.99307,9 L7.00213251,9 L10.4840075,12.0432323 C8.00700253,13.0580364 6.59089407,15.6941323 7.10476515,18.3337156 C7.61863624,20.9732989 9.91870138,22.8777919 12.5933825,22.8783838 L17.01182,22.8783838 L13.9996325,20.2494949 L12.5933825,20.2494949 C10.9484369,20.2494949 9.61494501,18.9085199 9.61494501,17.2543434 C9.61494501,15.6001669 10.9484369,14.2591919 12.5933825,14.2591919 L17.0132263,14.2591919 Z"/>
</svg>

<svg xmlns="http://www.w3.org/2000/svg" width="32" height="32"><path fill="#FFF" fill-rule="evenodd" d="M16 32C7.163 32 0 24.837 0 16S7.163 0 16 0s16 7.163 16 16-7.163 16-16 16zm-1.144-14.38l6.023 5.257h3.99l-3.484-3.042a5.632 5.632 0 0 0 3.38-6.29A5.602 5.602 0 0 0 19.274 9h-4.419l3.014 2.629h1.406a2.987 2.987 0 0 1 2.978 2.995 2.987 2.987 0 0 1-2.978 2.995h-4.42zm2.157-3.36L10.993 9h-3.99l3.481 3.043a5.632 5.632 0 0 0-3.38 6.29 5.602 5.602 0 0 0 5.49 4.545h4.418L14 20.25h-1.407a2.987 2.987 0 0 1-2.978-2.995 2.987 2.987 0 0 1 2.978-2.995h4.42z"/></svg>
